X: 171
M: 6/8
L: 1/8
K: Am
E |\
|: B |\
c2c cec | d2d ded | c2c edc | dBg dBG |\
c2c cec | deg a2g | ege deg | edB A2 :|


